vessel_track/img/user-ico.svg

<svg width="22" height="26" viewBox="0 0 22 26" fill="none" xmlns="http://www.w3.org/2000/svg">
<path d="M1.66669 22.482C1.66669 19.2645 3.92979 16.5239 7.00541 16.0169L7.28245 15.9712C9.74524 15.5652 12.2548 15.5652 14.7176 15.9712L14.9946 16.0169C18.0703 16.5239 20.3334 19.2645 20.3334 22.482C20.3334 23.8726 19.242 25 17.8958 25H4.10419C2.758 25 1.66669 23.8726 1.66669 22.482Z" stroke="white" stroke-width="2"/>
<path d="M16.4445 6.25C16.4445 9.1495 14.0069 11.5 11 11.5C7.99316 11.5 5.5556 9.1495 5.5556 6.25C5.5556 3.35051 7.99316 1 11 1C14.0069 1 16.4445 3.35051 16.4445 6.25Z" stroke="white" stroke-width="2"/>
</svg>

<svg width="22" height="26" fill="none" xmlns="http://www.w3.org/2000/svg"><path d="M1.667 22.482c0-3.217 2.263-5.958 5.338-6.465l.277-.046a22.846 22.846 0 017.436 0l.277.046c3.075.507 5.338 3.248 5.338 6.465 0 1.39-1.091 2.518-2.437 2.518H4.104c-1.346 0-2.437-1.127-2.437-2.518zM16.445 6.25c0 2.9-2.438 5.25-5.445 5.25S5.556 9.15 5.556 6.25 7.993 1 11 1s5.445 2.35 5.445 5.25z" stroke="#fff" stroke-width="2"/></svg>
